src/assets/Internships1.svg

<svg width="685" height="357" viewBox="0 0 685 357" fill="none" xmlns="http://www.w3.org/2000/svg">
<path fill-rule="evenodd" clip-rule="evenodd" d="M348.168 356.361C274.753 349.932 207.435 303.137 161.017 246.015C117.043 191.901 125.242 114.783 99.3156 50.1259C71.155 -20.1035 -10.301 -76.0984 1.94583 -150.689C14.0984 -224.706 96.933 -264.021 158.063 -307.679C209.702 -344.559 273.724 -352.927 328.948 -384.23C401.204 -425.188 449.934 -528.243 532.702 -520.041C612.677 -512.115 653.254 -416.278 695.269 -347.926C729.762 -291.812 736.751 -226.363 752.499 -162.467C767.061 -103.381 780.434 -46.6136 784.491 14.0821C789.795 93.4425 832.981 189.199 779.971 248.556C727.021 307.846 624.425 260.54 547.16 279.83C476.99 297.349 420.257 362.674 348.168 356.361Z" fill="#1E6851"/>
</svg>

<svg xmlns="http://www.w3.org/2000/svg" width="685" height="357" fill="none"><path fill="#1E6851" fill-rule="evenodd" d="M348.168 356.361c-73.415-6.429-140.733-53.224-187.151-110.346-43.974-54.114-35.775-131.232-61.701-195.89C71.155-20.102-10.301-76.097 1.946-150.688c12.152-74.017 94.987-113.332 156.117-156.99 51.639-36.88 115.661-45.248 170.885-76.551 72.256-40.958 120.986-144.013 203.754-135.811 79.975 7.926 120.552 103.763 162.567 172.115 34.493 56.114 41.482 121.563 57.23 185.459 14.562 59.086 27.935 115.853 31.992 176.55 5.304 79.36 48.49 175.116-4.52 234.473-52.95 59.29-155.546 11.984-232.811 31.274-70.17 17.519-126.903 82.844-198.992 76.531" clip-rule="evenodd"/></svg>
